X:187
T:Willie Corrigan's* (j)
B:NFID.062 ("untitled double jig")
187willie
S:JD
L:1/8
M:6/8
R:jig
Q:320
K:D=C
%A
d2B|: cAG A2D|DED A2d|cAG A2D|DED GED|
cAG A2D|DED AGE|FDF ECE|DED GED:|
%B1
d2e fdg|ecA AFA|d2g fdg|eaa gec|
d2e f^ga|ecA AGE|FDF EFE|DEF GED|
%B2
d2e fdg|ecA AFA|dcd efg|eaf gec|
d2e f^ga|ecA AGE|FAF EFE|DEF GED||
%C
B/A/BG A/B/AG|BGE Edc|B/A/BG A/B/AE|GED Ddc|
B/A/BG A/B/AG|BGE E2c|dcd A2G|1 FDD Ddc:|2 FDD DdB||

%%%

